remix/Communication/chat-poll-fill.svg

<svg viewBox="0 0 24 24" fill="currentColor" xmlns="http://www.w3.org/2000/svg"><path d="M21 3C21.5523 3 22 3.44772 22 4V18C22 18.5523 21.5523 19 21 19H6.455L2 22.5V4C2 3.44772 2.44772 3 3 3H21ZM13 7H11V15H13V7ZM17 9H15V15H17V9ZM9 11H7V15H9V11Z"/></svg>

<svg viewBox="0 0 24 24" xmlns="http://www.w3.org/2000/svg"><path fill="none" d="M0 0h24v24H0Z"/><path d="M21 3c.55 0 1 .44 1 1v14c0 .55-.45 1-1 1H6.455L2 22.5V4c0-.552.44-1 1-1h18Zm-8 4h-2v8h2V7Zm4 2h-2v6h2V9Zm-8 2H7v4h2v-4Z"/></svg>
